svgs/sharp-thin/rectangle-pro.svg

<svg xmlns="http://www.w3.org/2000/svg" viewBox="0 0 640 512"><!--! Font Awesome Pro 6.6.0 by @fontawesome - https://fontawesome.com License - https://fontawesome.com/license (Commercial License) Copyright 2024 Fonticons, Inc. --><path d="M16 48l0 416 608 0 0-416L16 48zM0 32l16 0 608 0 16 0 0 16 0 416 0 16-16 0L16 480 0 480l0-16L0 48 0 32zM88 160l56 0c30.9 0 56 25.1 56 56l0 8-.6 0c-3.9 27.1-27.2 48-55.4 48l-48 0 0 72 0 8-16 0 0-8 0-80 0-96 0-8 8 0zm56 96c22.1 0 40-17.9 40-40s-17.9-40-40-40l-48 0 0 80 48 0zm264-24c0-39.8 32.2-72 72-72s72 32.2 72 72l0 48c0 39.8-32.2 72-72 72s-72-32.2-72-72l0-48zm72-56c-30.9 0-56 25.1-56 56l0 48c0 30.9 25.1 56 56 56s56-25.1 56-56l0-48c0-30.9-25.1-56-56-56zM240 160l8 0 56 0c30.9 0 56 25.1 56 56c0 23.9-15 44.4-36.2 52.4L372.6 352l-18.5 0-46.7-80.1c-1.1 .1-2.2 .1-3.3 .1l-48 0 0 72 0 8-16 0 0-8 0-80 0-96 0-8zm16 96l48 0c22.1 0 40-17.9 40-40s-17.9-40-40-40l-48 0 0 80z"/></svg>

<svg xmlns="http://www.w3.org/2000/svg" viewBox="0 0 640 512"><!--! Font Awesome Pro 6.5.2 by @fontawesome - https://fontawesome.com License - https://fontawesome.com/license (Commercial License) Copyright 2024 Fonticons, Inc. --><path d="M16 48V464H624V48H16zM0 32H16 624h16V48 464v16H624 16 0V464 48 32zM88 160h56c30.9 0 56 25.1 56 56s-25.1 56-56 56H96v72 8H80v-8V264 168v-8h8zm56 96c22.1 0 40-17.9 40-40s-17.9-40-40-40H96v80h48zm264-24c0-39.8 32.2-72 72-72s72 32.2 72 72v48c0 39.8-32.2 72-72 72s-72-32.2-72-72V232zm72-56c-30.9 0-56 25.1-56 56v48c0 30.9 25.1 56 56 56s56-25.1 56-56V232c0-30.9-25.1-56-56-56zM240 160h8 56c30.9 0 56 25.1 56 56c0 23.9-15 44.4-36.2 52.4L372.6 352H354.1l-46.7-80.1c-1.1 .1-2.2 .1-3.3 .1H256v72 8H240v-8V264 168v-8zm16 96h48c22.1 0 40-17.9 40-40s-17.9-40-40-40H256v80z"/></svg>
